configs/network-logos/zksync-dark.svg

<svg width="118" height="24" viewBox="0 0 118 24" fill="none" xmlns="http://www.w3.org/2000/svg">
<path d="M87.984 20.7983H83.1998C77.4639 20.7983 72.8004 16.1352 72.8004 10.3999C72.8004 4.66458 77.4639 0 83.2013 0C88.9387 0 93.6008 4.66307 93.6008 10.3984V20.5902H89.441V10.3984C89.441 6.95087 86.6492 4.15936 83.2013 4.15936C79.7535 4.15936 76.9617 6.95087 76.9617 10.3984C76.9617 13.8459 79.7535 16.6374 83.2013 16.6374H87.9855V20.7968L87.984 20.7983Z" fill="white"/>
<path d="M64.4808 20.5902H60.321V10.3984C60.321 4.66307 64.9846 0 70.7205 0V4.15936C67.2726 4.15936 64.4808 6.95087 64.4808 10.3984V20.5902Z" fill="white"/>
<path d="M45.7604 20.7983C40.0245 20.7983 35.361 16.1352 35.361 10.3999C35.361 4.66458 40.0245 0 45.7604 0C51.4963 0 56.1598 4.66307 56.1598 10.3984V12.4781H44.1993V8.31872H51.638C50.7738 5.89369 48.4692 4.15936 45.7649 4.15936C42.317 4.15936 39.5253 6.95087 39.5253 10.3984C39.5253 13.8459 42.317 16.6374 45.7649 16.6374C47.8448 16.6374 49.7874 15.5969 50.9488 13.8625L54.3966 16.1835C52.4706 19.0625 49.246 20.7968 45.7589 20.7968L45.7604 20.7983Z" fill="white"/>
<path d="M110 4.15942H99.8403V20.5903H110V4.15942Z" fill="white"/>
<path d="M20.8004 18.7187L29.1199 10.3984L20.8004 2.07971V8.31875L12.4808 14.5593H20.8004V18.7187Z" fill="white"/>
<path d="M8.31953 2.07971L0 10.3984L8.31953 18.7187V12.4796L16.6406 6.23907H8.31953V2.07971Z" fill="white"/>
</svg>

<svg xmlns="http://www.w3.org/2000/svg" fill="none" viewBox="0 0 118 24">
  <path fill="#fff" d="M87.984 20.798H83.2c-5.736 0-10.4-4.663-10.4-10.398C72.8 4.665 77.464 0 83.201 0c5.738 0 10.4 4.663 10.4 10.398V20.59h-4.16V10.398a6.237 6.237 0 0 0-6.24-6.239 6.237 6.237 0 0 0-6.24 6.24 6.237 6.237 0 0 0 6.24 6.238h4.785v4.16l-.002.001ZM64.48 20.59h-4.159V10.398C60.321 4.663 64.985 0 70.721 0v4.16a6.237 6.237 0 0 0-6.24 6.238V20.59Zm-18.72.208c-5.735 0-10.399-4.663-10.399-10.398 0-5.735 4.664-10.4 10.4-10.4C51.495 0 56.16 4.663 56.16 10.398v2.08H44.2v-4.16h7.438c-.864-2.424-3.169-4.159-5.873-4.159a6.237 6.237 0 0 0-6.24 6.24 6.237 6.237 0 0 0 11.424 3.464l3.448 2.32a10.374 10.374 0 0 1-8.638 4.614l.001.001ZM110 4.16H99.84v16.43H110V4.16ZM20.8 18.719l8.32-8.32-8.32-8.32v6.24l-8.32 6.24h8.32v4.16ZM8.32 2.08 0 10.398l8.32 8.32V12.48l8.32-6.24H8.32V2.08Z"/>
</svg>
